X:1
T:Milestones
T:Milestones
C:Miles Davis
Z:All Rights Reserved
L:1/4
M:2/2
K:F
V:1 treble nm="Piano" snm="Pno."
%%MIDI program 0
%%MIDI control 7 100
%%MIDI control 10 64
V:1
"Gm7" F z"Am7" G z |"Bbmaj7" A z/"Am7" G/ z2 |"Gm7" F z"Am7" G z |"Bbmaj7" A z/"Am7" G/ z2 | %4
"Gm7" F z"Am7" G z |"Bbmaj7" A z/"Gm7" G/ z G- |"Am7" G4- | G4 |"Gm7""Gm7" F z"Am7" G z | %9
"Bbmaj7" A z/"Am7" G/ z2 |"Gm7" F z"Am7" G z |"Bbmaj7" A z/"Am7" G/ z2 |"Gm7" F z"Am7" G z | %13
"Bbmaj7" A z/"Gm7" G/ z G- |"Am7" G4- | G2 z/ c3/2 ||"Am7" =B2 c2 |"Am7" e2 d2 | =B2 c2 | d2 c2 | %20
 =B2 c2 | e2 =B c- | c4- | c2- c/- c3/2 | =B2 c2 | e2 d2 | =B2 c2 |"Am7" d2 c2 | =B2 c2 | %29
 e2 =B c- | c4- | c2- c/ _G3/2 ||"Gm7" F z"Am7" G z |"Bbmaj7" A z/"Am7" G/ z2 |"Gm7" F z"Am7" G z | %35
"Bbmaj7" A z/"Am7" G/ z2 |"Gm7" F z"Am7" G z |"Bbmaj7" A z/"Gm7" G/ z G- |"Am7" G4- | G4 |] %40

